packages/application/src/assets/vectors/icons/portfolio.svg

<?xml version="1.0" encoding="iso-8859-1"?>
<svg xmlns="https://www.w3.org/2000/svg" version="1.1" x="0px" y="0px" viewBox="0 0 480 480" style="enable-background:new 0 0 480 480;" xml:space="preserve">
  <path d="m456 72h-104v-32c-.027344-22.082031-17.917969-39.9726562-40-40h-144c-22.082031.0273438-39.972656 17.917969-40 40v32h-104c-13.253906 0-24 10.746094-24 24v178.078125c.0507812 10.148437 6.445312 19.175781 16 22.585937v111.335938c0 13.253906 10.746094 24 24 24h400c13.253906 0 24-10.746094 24-24v-111.328125c9.554688-3.414063 15.953125-12.445313 16-22.59375v-178.078125c0-13.253906-10.746094-24-24-24zm-312-32c0-13.253906 10.746094-24 24-24h144c13.253906 0 24 10.746094 24 24v32h-16v-32c0-4.417969-3.582031-8-8-8h-144c-4.417969 0-8 3.582031-8 8v32h-16zm160 32h-128v-24h128zm144 336c0 4.417969-3.582031 8-8 8h-400c-4.417969 0-8-3.582031-8-8v-108.585938l176 24.273438v20.3125c0 13.253906 10.746094 24 24 24h16c13.253906 0 24-10.746094 24-24v-20.3125l176-24.273438zm-192-64c0 4.417969-3.582031 8-8 8h-16c-4.417969 0-8-3.582031-8-8v-48c0-4.417969 3.582031-8 8-8h16c4.417969 0 8 3.582031 8 8zm208-69.921875c.003906 3.988281-2.929688 7.371094-6.878906 7.929687l-2.21875.304688-182.902344 25.222656v-11.535156c0-13.253906-10.746094-24-24-24h-16c-13.253906 0-24 10.746094-24 24v11.535156l-185.113281-25.527344c-3.949219-.554687-6.890625-3.9375-6.886719-7.929687v-178.078125c0-4.417969 3.582031-8 8-8h432c4.417969 0 8 3.582031 8 8zm0 0"/>
</svg>

<svg xmlns="https://www.w3.org/2000/svg" viewBox="0 0 480 480" style="enable-background:new 0 0 480 480" xml:space="preserve">
  <path d="M456 72H352V40c-.027-22.082-17.918-39.973-40-40H168c-22.082.027-39.973 17.918-40 40v32H24C10.746 72 0 82.746 0 96v178.078a24.105 24.105 0 0 0 16 22.586V408c0 13.254 10.746 24 24 24h400c13.254 0 24-10.746 24-24V296.672a24.113 24.113 0 0 0 16-22.594V96c0-13.254-10.746-24-24-24zM144 40c0-13.254 10.746-24 24-24h144c13.254 0 24 10.746 24 24v32h-16V40a8 8 0 0 0-8-8H168a8 8 0 0 0-8 8v32h-16zm160 32H176V48h128zm144 336a8 8 0 0 1-8 8H40a8 8 0 0 1-8-8V299.414l176 24.274V344c0 13.254 10.746 24 24 24h16c13.254 0 24-10.746 24-24v-20.313l176-24.273zm-192-64a8 8 0 0 1-8 8h-16a8 8 0 0 1-8-8v-48a8 8 0 0 1 8-8h16a8 8 0 0 1 8 8zm208-69.922a8 8 0 0 1-6.879 7.93l-2.219.305L272 307.534V296c0-13.254-10.746-24-24-24h-16c-13.254 0-24 10.746-24 24v11.535L22.887 282.008a8.001 8.001 0 0 1-6.887-7.93V96a8 8 0 0 1 8-8h432a8 8 0 0 1 8 8zm0 0"/>
</svg>
